plasma/desktoptheme/Arc-Dark/icons/notifications.svg

<svg xmlns="http://www.w3.org/2000/svg" width="22" height="22" version="1.1">
 <g id="notifications-disabled">
  <rect style="opacity:0.001" width="22" height="22" x="0" y="0"/>
  <path style="opacity:0.3;fill:#d3dae3" d="m 11,3 c -0.55,0 -1,0.45 -1,1 0,0.03 -2.344e-4,0.069609 0.0098,0.099609 C 7.7197656,4.5596094 6,6.57 6,9 v 4.5 l -2,2 V 16 h 2 8.189453 C 14.066246,15.829475 13.999951,15.62444 14,15.414062 V 14 c 5.5e-5,-0.552262 0.447738,-0.999945 1,-1 h 1 V 11 9 C 16,6.57 14.280234,4.5596094 11.990234,4.0996094 12.000234,4.0696094 12,4.03 12,4 12,3.45 11.55,3 11,3 Z M 9.2695312,17 C 9.6295313,17.62 10.29,18 11,18 c 0.71,0 1.370469,-0.38 1.730469,-1 z"/>
  <path style="fill:#f44336" d="m 15,14 v 1.414062 L 16.085938,16.5 15,17.585938 V 19 h 1.414062 L 17.5,17.914062 18.585938,19 H 20 V 17.585938 L 18.914062,16.5 20,15.414062 V 14 H 18.585938 L 17.5,15.085938 16.414062,14 Z"/>
 </g>
</svg>

<?xml version="1.0" encoding="UTF-8"?>
<svg width="22" height="22" version="1.1" xmlns="http://www.w3.org/2000/svg">
 <g id="notifications-disabled">
  <rect width="22" height="22" opacity=".001"/>
  <path d="m11 3c-0.55 0-1 0.45-1 1 0 0.03-2.344e-4 0.069609 0.0098 0.099609-2.29 0.46-4.0098 2.4704-4.0098 4.9004v4.5l-2 2v0.5h10.189c-0.12321-0.17052-0.1895-0.37556-0.18945-0.58594v-1.4141c5.5e-5 -0.55226 0.44774-0.99994 1-1h1v-4c0-2.43-1.7198-4.4404-4.0098-4.9004 0.01-0.03 0.009766-0.069609 0.009766-0.099609 0-0.55-0.45-1-1-1zm-1.7305 14c0.36 0.62 1.0205 1 1.7305 1s1.3705-0.38 1.7305-1z" fill="#d3dae3" opacity=".3"/>
  <path d="m15 14v1.4141l1.0859 1.0859-1.0859 1.0859v1.4141h1.4141l1.0859-1.0859 1.0859 1.0859h1.4141v-1.4141l-1.0859-1.0859 1.0859-1.0859v-1.4141h-1.4141l-1.0859 1.0859-1.0859-1.0859z" fill="#f44336"/>
 </g>
</svg>
